assets/icons/moon-white.svg

<svg width="16" height="16" viewBox="0 0 16 16" fill="none" xmlns="http://www.w3.org/2000/svg">
<path d="M6.04904 1.90286C6.52157 1.7518 6.81186 2.39113 6.5341 2.80217C6.01648 3.56818 5.71419 4.4916 5.71419 5.48572C5.71419 8.13669 7.86322 10.2857 10.5142 10.2857C11.5083 10.2857 12.4317 9.98343 13.1977 9.4658C13.6088 9.18805 14.2481 9.47834 14.0971 9.95087C13.2721 12.5315 10.8542 14.4 7.9999 14.4C4.46528 14.4 1.5999 11.5346 1.5999 8.00001C1.5999 5.14569 3.46845 2.72785 6.04904 1.90286ZM11.1999 3.88572C10.9485 3.88572 10.7428 3.68001 10.7428 3.42858C10.7428 3.17715 10.9485 2.97143 11.1999 2.97143L12.1142 2.97143L12.1142 2.05715C12.1142 1.80572 12.3199 1.60001 12.5713 1.60001C12.8228 1.60001 13.0285 1.80572 13.0285 2.05715L13.0285 2.97143L13.9428 2.97143C14.1942 2.97143 14.3999 3.17715 14.3999 3.42858C14.3999 3.68001 14.1942 3.88572 13.9428 3.88572L13.0285 3.88572L13.0285 4.80001C13.0285 5.05143 12.8228 5.25715 12.5713 5.25715C12.3199 5.25715 12.1142 5.05143 12.1142 4.80001L12.1142 3.88572L11.1999 3.88572ZM9.37133 6.62858L9.82847 6.62858L9.82847 6.17143C9.82847 5.92001 10.0342 5.71429 10.2856 5.71429C10.537 5.71429 10.7428 5.92001 10.7428 6.17143L10.7428 6.62858L11.1999 6.62858C11.4513 6.62858 11.657 6.83429 11.657 7.08572C11.657 7.33715 11.4513 7.54286 11.1999 7.54286L10.7428 7.54286L10.7428 8.00001C10.7428 8.25143 10.537 8.45715 10.2856 8.45715C10.0342 8.45715 9.82847 8.25143 9.82847 8.00001L9.82847 7.54286L9.37133 7.54286C9.1199 7.54286 8.91419 7.33715 8.91419 7.08572C8.91419 6.83429 9.1199 6.62858 9.37133 6.62858Z" fill="white"/>
</svg>

<svg xmlns="http://www.w3.org/2000/svg" width="16" height="16" fill="none" data-c="1"><path fill="#fff" d="M6.049 1.903c.473-.151.763.488.485.9a4.8 4.8 0 0 0 6.664 6.664c.41-.279 1.05.011.9.484A6.4 6.4 0 1 1 6.05 1.903m5.15 1.983a.46.46 0 0 1-.456-.457c0-.252.205-.458.457-.458h.914v-.914c0-.251.206-.457.457-.457.252 0 .457.206.457.457v.914h.915a.458.458 0 0 1 0 .914h-.915V4.8a.46.46 0 0 1-.457.457.46.46 0 0 1-.457-.457v-.914zM9.372 6.629h.457V6.17a.459.459 0 0 1 .914 0v.458h.458c.251 0 .457.205.457.457a.46.46 0 0 1-.457.457h-.457V8a.46.46 0 0 1-.457.457A.46.46 0 0 1 9.828 8v-.457h-.457a.46.46 0 0 1-.457-.457c0-.252.206-.457.457-.457"/></svg>
